X:1
T:Title
%%score { ( 1 3 ) | ( 2 4 ) }
L:1/8
M:4/4
K:G
V:1 treble nm="Grand Piano"
V:3 treble 
V:2 bass 
V:4 bass 
V:1
 z4 z2[Q:1/4=96] [B,D][B,E] | [B,G][B,G][B,G][B,G] [DB][B,G][CE][B,D] | [B,G][DA][EG]E D2 DE | %3
 GGGA BBAG | A6 [B,D][B,E] | [B,G][B,G][B,G][B,G] [DB][B,G][CE][B,D] | [B,G][DA][EG]E D2 GG | %7
 BB[Gd][Gd] BBGA |[M:3/4] [B,DG]6 |[M:1/4] [DB][B,G] |[M:4/4] [DB]6 z2 | G6[K:bass] z2 | %12
 [B,G][B,G][DG][DA] [DB][DB][DA][^CG] | A6 BB |[M:3/4] dd BG [DB]2 |[M:1/4] [DG][DG] | %16
[M:4/4] [EA][EG]EG D2 [B,G][B,G] | [DB][DB][Gd][Gd] BBGA |[M:3/4] [B,DG]6 |] %19
V:2
 z4 z2 [G,,G,][G,,G,] | [G,,D,][G,,D,][G,,D,][G,,D,] [G,,G,][G,,D,][G,,G,][G,,G,] | %2
 [G,,D,][B,,G,][C,G,][E,G,C] [G,B,]2 [G,B,][G,B,] | %3
 [G,B,][G,B,][G,B,][G,C] [G,D][G,D][F,A,D][E,A,^C] | [D,F,C]6 [G,,G,][G,,G,] | %5
 [G,,D,][G,,D,][G,,D,][G,,D,] [G,,G,][G,,D,][G,,G,][G,,G,] | %6
 [G,,D,][B,,G,][C,G,][E,G,C] [G,B,]2 [G,B,][G,B,] | %7
 [G,D][G,D][B,,G,][B,,G,] [D,G,D][D,G,D][D,B,D][D,CD] |[M:3/4] G,,6 |[M:1/4] [G,,G,][G,,G,] | %10
[M:4/4] [G,,G,]G,,B,,D, G,[G,,D,][G,,D,][G,,D,] | D,D,E,D, D,2 G,,2 | %12
 [G,,D,][G,,D,][B,,G,][A,,F,] [G,,G,][G,,G,][A,,F,][A,,E,] | [D,F,C]6[K:treble] [G,D][G,D] | %14
[M:3/4] [G,B,G][G,B,G] [G,D][K:bass][G,B,] [G,,G,]2 |[M:1/4] [B,,G,][B,,G,] | %16
[M:4/4] [C,G,][C,G,][C,G,C][E,G,C] [G,B,]2 [G,,D,][G,,D,] | %17
 [G,,G,][G,,G,][B,,G,][B,,G,] [D,G,D][D,G,D][D,B,D][D,CD] |[M:3/4] G,,6 |] %19
V:3
 x8 | x8 | x8 | x8 | x8 | x8 | x8 | x8 |[M:3/4] x6 |[M:1/4] x2 |[M:4/4] z G,G,G, z [B,G][CA][B,G] | %11
 B,[K:bass]B,CB, B,2 [G,B,D]2 | x8 | x8 |[M:3/4] x6 |[M:1/4] x2 |[M:4/4] x8 | x8 |[M:3/4] x6 |] %19
V:4
 x8 | x8 | x8 | x8 | x8 | x8 | x8 | x8 |[M:3/4] x6 |[M:1/4] x2 |[M:4/4] x8 | G,,6 z2 | x8 | %13
 x6[K:treble] x2 |[M:3/4] x3[K:bass] x3 |[M:1/4] x2 |[M:4/4] x8 | x8 |[M:3/4] x6 |] %19

